svg/u1f920.svg

<svg viewBox="0 0 128 128" xmlns="http://www.w3.org/2000/svg">
  <g id="gold">
    <radialGradient id="face_1_" cx="63.59" cy="2893.0901" gradientTransform="matrix(1 0 0 1 0 -2818)" gradientUnits="userSpaceOnUse" r="50.6587">
      <stop offset="0.5" stop-color="#FDE030"/>
      <stop offset="0.92" stop-color="#F7C02B"/>
      <stop offset="1" stop-color="#F4A223"/>
    </radialGradient>
    <path id="face" d="M63.6,124.8c-24.81,0-51.6-15.56-51.6-49.71s26.79-49.71,51.6-49.71 c13.78,0,26.5,4.53,35.93,12.8c10.22,9.08,15.65,21.88,15.65,36.91s-5.43,27.75-15.65,36.82C90.1,120.18,77.29,124.8,63.6,124.8z" fill="url(#face_1_)"/>
    <path d="M106.19,45.54c4.88,8.1,7.38,17.42,7.21,26.88c0,15-5.43,27.75-15.65,36.82 c-9.43,8.27-22.23,12.89-35.93,12.89c-16.06,0-32.93-6.53-42.84-20.4c9.57,15.71,27.56,23.07,44.62,23.07 c13.69,0,26.5-4.62,35.93-12.89c10.22-9.08,15.65-21.79,15.65-36.82C115.18,63.76,112.09,53.69,106.19,45.54z" fill="#EB8F00"/>
  </g>
  <g id="faces">
    <g id="cowboy-face">
      <g id="prop">
        <path d="M34.25,33.47C13.9,25.4,0,13.55,0,22.8C0,41.22,4.83,56,12.6,67.31 C14.71,51.37,23.19,40.22,34.25,33.47z" fill="#4A251A"/>
        <path d="M114.71,68.3C122.88,56.92,128,41.76,128,22.8c0-9.7-14.17,2.63-34.84,10.81 c2.23,1.39,4.34,2.95,6.32,4.68C108.1,45.94,113.29,56.25,114.71,68.3z" fill="#4A251A"/>
        <path d="M94.2,19.2c-4.5-9.7-12.3-19.1-19.5-19C66.9,0.3,68.3,3.6,64,3.6c-4.5,0-2.8-3.4-10.1-3.4 s-15.4,9.1-20.2,19c9.92,2.4,20.1,3.54,30.3,3.4C77.7,22.6,87.6,21,94.2,19.2z" fill="#826156"/>
        <path d="M96.46,25c-0.64-1.98-1.39-3.91-2.26-5.8C87.6,21,77.7,22.6,64,22.6c-10.2,0.14-20.38-1-30.3-3.4 c-0.89,1.9-1.66,3.86-2.32,5.85C42.17,26.84,53.07,27.82,64,28C74.88,27.82,85.73,26.82,96.46,25z" fill="#A1887F"/>
        <path d="M96.46,25C85.73,26.82,74.88,27.82,64,28c-10.93-0.18-21.83-1.16-32.62-2.95 C15.58,22.6,3,19.5,3,19.5s17.3,34.3,61,34.3s60.1-34.3,60.1-34.3S111.93,22.58,96.46,25z" fill="#7A5549"/>
      </g>
    </g>
  </g>
  <g id="facial_expressions">
    <g id="face-with-cowboy-hat">
      <g id="eyes">
        <path d="M82.3,57.4c3.5,0,6.7,4.1,6.7,10.9s-3.2,10.9-6.7,10.9s-6.7-4.1-6.7-10.9S78.8,57.4,82.3,57.4z" fill="#422B0D"/>
        <path d="M45.7,57.4c-3.5,0-6.7,4.1-6.7,10.9s3.2,10.9,6.7,10.9s6.7-4.1,6.7-10.9S49.2,57.4,45.7,57.4z" fill="#422B0D"/>
      </g>
    </g>
    <g id="peepers">
      <path d="M45.11,61.31L45.11,61.31c-1.28-0.59-2.79-0.03-3.38,1.25c-0.45,0.98-0.24,2.13,0.52,2.88l0,0 c1.28,0.59,2.79,0.03,3.38-1.25C46.08,63.22,45.87,62.06,45.11,61.31z" fill="#896024"/>
    </g>
    <g id="peepers-2">
      <path d="M82,61.31L82,61.31c-1.28-0.59-2.79-0.03-3.38,1.25c-0.45,0.98-0.24,2.13,0.52,2.88l0,0 c1.28,0.59,2.79,0.03,3.38-1.25C82.97,63.22,82.76,62.06,82,61.31z" fill="#896024"/>
    </g>
    <path d="M95.57,88.78c-1.17-2.09-3.7-3.01-5.94-2.16c-8.54,2.49-17.39,3.73-26.28,3.69 c-8.9,0.04-17.75-1.2-26.29-3.69c-2.24-0.84-4.76,0.07-5.93,2.16c-1.13,2.1-0.31,4.52,0.64,6.61 c5.35,11.73,17.12,18.74,31.51,18.79h0.13c14.4-0.05,26.17-7.06,31.51-18.79C95.87,93.3,96.7,90.88,95.57,88.78z" fill="#422B0D"/>
    <path d="M63.41,113.14" fill="#422B0D"/>
    <path d="M63.47,91.35" fill="#422B0D"/>
    <path d="M63.47,91.35" fill="#422B0D"/>
    <path d="M63.41,113.14" fill="#422B0D"/>
    <path d="M76.66,110.85c-0.31-0.28-0.62-0.54-0.94-0.81c-3.4-2.98-7.79-4.59-12.31-4.5 c-4.67-0.1-9.22,1.44-12.87,4.35c-0.32,0.25-0.65,0.5-1,0.78s-0.47,0.56-0.67,0.83c4.58,1.79,9.45,2.7,14.37,2.68h0.13 c4.71,0.01,9.38-0.82,13.79-2.46C77.01,111.42,76.84,111.13,76.66,110.85z" fill="#ED7770"/>
    <path d="M89.63,86.62c-8.54,2.49-17.39,3.73-26.28,3.69c-8.9,0.04-17.75-1.2-26.29-3.69 c-2.24-0.84-4.76,0.07-5.93,2.16c-0.17,0.32-0.29,0.65-0.38,1c0.28,0.14,0.59,0.28,1,0.43c10,5.01,21.06,7.56,32.25,7.43 c10.74,0.12,21.36-2.22,31.06-6.83c0.39-0.16,0.71-0.32,1-0.47c-0.07-0.55-0.23-1.07-0.49-1.56C94.4,86.69,91.87,85.77,89.63,86.62 z" fill="#FFFFFF"/>
    <path d="M95.6,88.79c-1.19-2.1-3.74-3.02-6-2.17c-8.54,2.49-17.39,3.73-26.28,3.69 c-8.89,0.04-17.74-1.2-26.28-3.69c-2.24-0.84-4.76,0.07-5.93,2.16c-1.13,2.1-0.31,4.52,0.64,6.61c0.43,0.94,0.91,1.86,1.42,2.75 c0,0-1.77-6.49-0.23-8.37c0.52-0.79,1.38-1.29,2.33-1.35c0.39,0,0.78,0.07,1.15,0.19c8.7,2.53,17.72,3.81,26.78,3.78h0.29 c9.05,0.03,18.06-1.25,26.75-3.78c0.37-0.12,0.76-0.19,1.15-0.19c0.95,0.05,1.82,0.55,2.34,1.35c1.53,1.88-0.23,8.38-0.23,8.38 c0.51-0.89,1-1.81,1.46-2.75C95.91,93.31,96.73,90.89,95.6,88.79z" fill="#EB8F00"/>
  </g>
</svg>

<svg viewBox="0 0 128 128" xmlns="http://www.w3.org/2000/svg">
  <defs>
    <radialGradient id="face_1_" cx="63.59" cy="75.0901" gradientUnits="userSpaceOnUse" r="50.6587">
      <stop offset="0.5" stop-color="#FDE030"/>
      <stop offset="0.92" stop-color="#F7C02B"/>
      <stop offset="1" stop-color="#F4A223"/>
    </radialGradient>
  </defs>
  <path id="face" d="M63.6,124.8 C38.79,124.8 12,109.24 12,75.09 C12,40.94 38.79,25.38 63.6,25.38 C77.38,25.38 90.1,29.91 99.53,38.18 C109.75,47.26 115.18,60.06 115.18,75.09 C115.18,90.12 109.75,102.84 99.53,111.91 C90.1,120.18 77.29,124.8 63.6,124.8 Z" fill="url(#face_1_)"/>
  <path d="M106.19,45.54 C111.07,53.64 113.57,62.96 113.4,72.42 C113.4,87.42 107.97,100.17 97.75,109.24 C88.32,117.51 75.52,122.13 61.82,122.13 C45.76,122.13 28.89,115.6 18.98,101.73 C28.55,117.44 46.54,124.8 63.6,124.8 C77.29,124.8 90.1,120.18 99.53,111.91 C109.75,102.83 115.18,90.12 115.18,75.09 C115.18,63.76 112.09,53.69 106.19,45.54 Z" fill="#EB8F00"/>
  <path d="M34.25,33.47 C13.9,25.4 0,13.55 0,22.8 C0,41.22 4.83,56 12.6,67.31 C14.71,51.37 23.19,40.22 34.25,33.47 Z" fill="#4A251A"/>
  <path d="M114.71,68.3 C122.88,56.92 128,41.76 128,22.8 C128,13.1 113.83,25.43 93.16,33.61 C95.39,35 97.5,36.56 99.48,38.29 C108.1,45.94 113.29,56.25 114.71,68.3 Z" fill="#4A251A"/>
  <path d="M94.2,19.2 C89.7,9.5 81.9,0.1 74.7,0.2 C66.9,0.3 68.3,3.6 64,3.6 C59.5,3.6 61.2,0.2 53.9,0.2 C46.6,0.2 38.5,9.3 33.7,19.2 C43.62,21.6 53.8,22.74 64,22.6 C77.7,22.6 87.6,21 94.2,19.2 Z" fill="#826156"/>
  <path d="M96.46,25 C95.82,23.02 95.07,21.09 94.2,19.2 C87.6,21 77.7,22.6 64,22.6 C53.8,22.74 43.62,21.6 33.7,19.2 C32.81,21.1 32.04,23.06 31.38,25.05 C42.17,26.84 53.07,27.82 64,28 C74.88,27.82 85.73,26.82 96.46,25 Z" fill="#A1887F"/>
  <path d="M96.46,25 C85.73,26.82 74.88,27.82 64,28 C53.07,27.82 42.17,26.84 31.38,25.05 C15.58,22.6 3,19.5 3,19.5 C3,19.5 20.3,53.8 64,53.8 C107.7,53.8 124.1,19.5 124.1,19.5 C124.1,19.5 111.93,22.58 96.46,25 Z" fill="#7A5549"/>
  <path d="M82.3,57.4 C85.8,57.4 89,61.5 89,68.3 C89,75.1 85.8,79.2 82.3,79.2 C78.8,79.2 75.6,75.1 75.6,68.3 C75.6,61.5 78.8,57.4 82.3,57.4 Z" fill="#422B0D"/>
  <path d="M45.7,57.4 C42.2,57.4 39,61.5 39,68.3 C39,75.1 42.2,79.2 45.7,79.2 C49.2,79.2 52.4,75.1 52.4,68.3 C52.4,61.5 49.2,57.4 45.7,57.4 Z" fill="#422B0D"/>
  <path d="M45.11,61.31 L45.11,61.31 C43.83,60.72 42.32,61.28 41.73,62.56 C41.28,63.54 41.49,64.69 42.25,65.44 L42.25,65.44 C43.53,66.03 45.04,65.47 45.63,64.19 C46.08,63.22 45.87,62.06 45.11,61.31 Z" fill="#896024"/>
  <path d="M82,61.31 L82,61.31 C80.72,60.72 79.21,61.28 78.62,62.56 C78.17,63.54 78.38,64.69 79.14,65.44 L79.14,65.44 C80.42,66.03 81.93,65.47 82.52,64.19 C82.97,63.22 82.76,62.06 82,61.31 Z" fill="#896024"/>
  <path d="M95.57,88.78 C94.4,86.69 91.87,85.77 89.63,86.62 C81.09,89.11 72.24,90.35 63.35,90.31 C54.45,90.35 45.6,89.11 37.06,86.62 C34.82,85.78 32.3,86.69 31.13,88.78 C30,90.88 30.82,93.3 31.77,95.39 C37.12,107.12 48.89,114.13 63.28,114.18 L63.41,114.18 C77.81,114.13 89.58,107.12 94.92,95.39 C95.87,93.3 96.7,90.88 95.57,88.78 Z" fill="#422B0D"/>
  <path d="M76.66,110.85 C76.35,110.57 76.04,110.31 75.72,110.04 C72.32,107.06 67.93,105.45 63.41,105.54 C58.74,105.44 54.19,106.98 50.54,109.89 C50.22,110.14 49.89,110.39 49.54,110.67 C49.19,110.95 49.07,111.23 48.87,111.5 C53.45,113.29 58.32,114.2 63.24,114.18 L63.37,114.18 C68.08,114.19 72.75,113.36 77.16,111.72 C77.01,111.42 76.84,111.13 76.66,110.85 Z" fill="#ED7770"/>
  <path d="M89.63,86.62 C81.09,89.11 72.24,90.35 63.35,90.31 C54.45,90.35 45.6,89.11 37.06,86.62 C34.82,85.78 32.3,86.69 31.13,88.78 C30.96,89.1 30.84,89.43 30.75,89.78 C31.03,89.92 31.34,90.06 31.75,90.21 C41.75,95.22 52.81,97.77 64,97.64 C74.74,97.76 85.36,95.42 95.06,90.81 C95.45,90.65 95.77,90.49 96.06,90.34 C95.99,89.79 95.83,89.27 95.57,88.78 C94.4,86.69 91.87,85.77 89.63,86.62 Z" fill="#FFFFFF"/>
  <path d="M95.6,88.79 C94.41,86.69 91.86,85.77 89.6,86.62 C81.06,89.11 72.21,90.35 63.32,90.31 C54.43,90.35 45.58,89.11 37.04,86.62 C34.8,85.78 32.28,86.69 31.11,88.78 C29.98,90.88 30.8,93.3 31.75,95.39 C32.18,96.33 32.66,97.25 33.17,98.14 C33.17,98.14 31.4,91.65 32.94,89.77 C33.46,88.98 34.32,88.48 35.27,88.42 C35.66,88.42 36.05,88.49 36.42,88.61 C45.12,91.14 54.14,92.42 63.2,92.39 L63.49,92.39 C72.54,92.42 81.55,91.14 90.24,88.61 C90.61,88.49 91,88.42 91.39,88.42 C92.34,88.47 93.21,88.97 93.73,89.77 C95.26,91.65 93.5,98.15 93.5,98.15 C94.01,97.26 94.5,96.34 94.96,95.4 C95.91,93.31 96.73,90.89 95.6,88.79 Z" fill="#EB8F00"/>
</svg>
